app/assets/images/heroicons/mini/speaker-wave.svg

<svg width="20" height="20" viewBox="0 0 20 20" fill="none" xmlns="http://www.w3.org/2000/svg">
<path d="M10.5 3.75002C10.5 3.4508 10.3221 3.18021 10.0475 3.06153C9.7728 2.94286 9.45387 2.99879 9.23598 3.20387L5.20257 7.00002H2.66724C2.35725 7.00002 2.0792 7.19074 1.96756 7.47993C1.66534 8.26287 1.5 9.11302 1.5 10C1.5 10.887 1.66534 11.7372 1.96756 12.5201C2.0792 12.8093 2.35725 13 2.66724 13H5.20257L9.23598 16.7962C9.45387 17.0012 9.7728 17.0572 10.0475 16.9385C10.3221 16.8198 10.5 16.5492 10.5 16.25V3.75002Z" fill="#0F172A"/>
<path d="M16.4498 5.05029C16.1569 4.7574 15.682 4.7574 15.3891 5.05029C15.0962 5.34318 15.0962 5.81806 15.3891 6.11095C17.537 8.25883 17.537 11.7412 15.3891 13.8891C15.0962 14.182 15.0962 14.6569 15.3891 14.9498C15.682 15.2427 16.1569 15.2427 16.4498 14.9498C19.1834 12.2161 19.1834 7.78396 16.4498 5.05029Z" fill="#0F172A"/>
<path d="M14.3287 7.1716C14.0358 6.8787 13.5609 6.8787 13.268 7.1716C12.9751 7.46449 12.9751 7.93936 13.268 8.23226C14.2443 9.20857 14.2443 10.7915 13.268 11.7678C12.9751 12.0607 12.9751 12.5356 13.268 12.8285C13.5609 13.1213 14.0358 13.1213 14.3287 12.8285C15.8908 11.2664 15.8908 8.73369 14.3287 7.1716Z" fill="#0F172A"/>
</svg>

<svg xmlns="http://www.w3.org/2000/svg" viewBox="0 0 20 20" fill="currentColor" aria-hidden="true" data-slot="icon">
  <path d="M10.5 3.75a.75.75 0 0 0-1.264-.546L5.203 7H2.667a.75.75 0 0 0-.7.48A6.985 6.985 0 0 0 1.5 10c0 .887.165 1.737.468 2.52.111.29.39.48.7.48h2.535l4.033 3.796a.75.75 0 0 0 1.264-.546V3.75ZM16.45 5.05a.75.75 0 0 0-1.06 1.061 5.5 5.5 0 0 1 0 7.778.75.75 0 0 0 1.06 1.06 7 7 0 0 0 0-9.899Z"/>
  <path d="M14.329 7.172a.75.75 0 0 0-1.061 1.06 2.5 2.5 0 0 1 0 3.536.75.75 0 0 0 1.06 1.06 4 4 0 0 0 0-5.656Z"/>
</svg>
